src/asset/image/pengesekkdollar.svg

<svg width="20" height="20" viewBox="0 0 20 20" fill="none" xmlns="http://www.w3.org/2000/svg">
<path fill-rule="evenodd" clip-rule="evenodd" d="M7.51042 5.41643C7.51042 5.64643 7.69708 5.83309 7.92708 5.83309H12.0938C12.3238 5.83309 12.5104 5.64643 12.5104 5.41643C12.5104 3.90825 14.0667 1.54193 14.1064 1.48159L14.1071 1.48059C14.2096 1.32726 14.1988 1.12476 14.0804 0.983092C13.9629 0.842259 13.7654 0.793926 13.5963 0.866426L11.0721 1.94809L10.3971 0.261426C10.2704 -0.0552409 9.75042 -0.0552409 9.62292 0.261426L8.94792 1.94809L6.42375 0.867259C6.25625 0.794759 6.05792 0.842259 5.93958 0.983092C5.82208 1.12476 5.81125 1.32726 5.91375 1.48059L5.9144 1.48158C5.95404 1.54185 7.51042 3.90823 7.51042 5.41643ZM9.01292 2.88226C9.11542 2.92643 9.23208 2.92643 9.33625 2.88393C9.44042 2.84059 9.52208 2.75809 9.56375 2.65393L10.0104 1.53809L10.4571 2.65393C10.4988 2.75809 10.5804 2.84143 10.6846 2.88393C10.7888 2.92726 10.9054 2.92643 11.0079 2.88226L12.7546 2.13393C12.3263 2.93309 11.8263 4.03393 11.7046 4.99976H8.31542C8.19458 4.03393 7.69458 2.93393 7.26625 2.13393L9.01292 2.88226ZM7.09375 6.66643C6.86375 6.66643 6.67708 6.85309 6.67708 7.08309C6.67708 7.31309 6.86292 7.49976 7.09375 7.49976H12.9271C13.1571 7.49976 13.3438 7.31309 13.3438 7.08309C13.3438 6.85309 13.1571 6.66643 12.9271 6.66643H7.09375ZM12.5746 8.41476C12.5029 8.36143 12.4162 8.33309 12.3271 8.33309H7.69292C7.60375 8.33309 7.51708 8.36143 7.44542 8.41476C5.42958 9.90226 3.34375 12.7723 3.34375 14.9998C3.34375 18.4106 5.46208 19.9998 10.0104 19.9998C14.5588 19.9998 16.6771 18.4106 16.6771 14.9998C16.6771 12.7714 14.5912 9.90143 12.5746 8.41476ZM10.0104 19.1664C4.87042 19.1664 4.17708 17.0606 4.17708 14.9998C4.17708 13.0998 6.05375 10.5248 7.83292 9.16643H12.1888C13.9671 10.5248 15.8438 13.0989 15.8438 14.9998C15.8438 17.0606 15.1504 19.1664 10.0104 19.1664ZM11.2604 12.9164C11.2604 12.4573 10.8863 12.0831 10.4271 12.0831C9.96708 12.0831 9.59375 12.4573 9.59375 12.9164C9.59375 13.3756 9.96792 13.7498 10.4271 13.7498C11.3463 13.7498 12.0938 14.4973 12.0938 15.4164C12.0938 16.1906 11.5604 16.8373 10.8438 17.0239V17.4998C10.8438 17.7298 10.6571 17.9164 10.4271 17.9164C10.1971 17.9164 10.0104 17.7298 10.0104 17.4998V17.0239C9.29375 16.8381 8.76042 16.1906 8.76042 15.4164C8.76042 15.1864 8.94708 14.9998 9.17708 14.9998C9.40708 14.9998 9.59375 15.1864 9.59375 15.4164C9.59375 15.8756 9.96792 16.2498 10.4271 16.2498C10.8863 16.2498 11.2604 15.8756 11.2604 15.4164C11.2604 14.9573 10.8863 14.5831 10.4271 14.5831C9.50792 14.5831 8.76042 13.8356 8.76042 12.9164C8.76042 12.1423 9.29375 11.4956 10.0104 11.3089V10.8331C10.0104 10.6031 10.1971 10.4164 10.4271 10.4164C10.6571 10.4164 10.8438 10.6031 10.8438 10.8331V11.3089C11.5604 11.4948 12.0938 12.1423 12.0938 12.9164C12.0938 13.1464 11.9071 13.3331 11.6771 13.3331C11.4471 13.3331 11.2604 13.1464 11.2604 12.9164Z" fill="#3E3832"/>
</svg>

<svg width="20" height="20" viewBox="0 0 20 20" fill="none" xmlns="http://www.w3.org/2000/svg"><path fill-rule="evenodd" clip-rule="evenodd" d="M7.51 5.416c0 .23.187.417.417.417h4.167c.23 0 .416-.187.416-.417 0-1.508 1.557-3.874 1.596-3.934l.001-.001a.416.416 0 00-.51-.615l-2.525 1.082-.675-1.687c-.127-.316-.647-.316-.774 0l-.675 1.687L6.424.868a.417.417 0 00-.51.613c.04.06 1.596 2.427 1.596 3.935zm1.503-2.534a.418.418 0 00.55-.228l.447-1.116.447 1.116a.414.414 0 00.55.228l1.748-.748c-.429.8-.929 1.9-1.05 2.866h-3.39c-.12-.966-.62-2.066-1.049-2.866l1.747.748zm-1.92 3.784a.417.417 0 000 .834h5.834a.417.417 0 000-.834H7.094zm5.482 1.749a.414.414 0 00-.248-.082H7.693a.414.414 0 00-.248.082C5.43 9.902 3.344 12.772 3.344 15c0 3.41 2.118 5 6.666 5 4.549 0 6.667-1.59 6.667-5 0-2.229-2.086-5.099-4.102-6.585zM10.01 19.166c-5.14 0-5.833-2.105-5.833-4.166 0-1.9 1.877-4.475 3.656-5.834h4.356c1.778 1.359 3.655 3.933 3.655 5.834 0 2.06-.694 4.166-5.834 4.166zm1.25-6.25a.834.834 0 10-.833.833c.92 0 1.667.748 1.667 1.667 0 .775-.534 1.421-1.25 1.608v.476a.417.417 0 01-.834 0v-.476a1.665 1.665 0 01-1.25-1.608.417.417 0 01.834 0c0 .46.374.834.833.834a.835.835 0 000-1.667c-.92 0-1.667-.747-1.667-1.667 0-.774.534-1.42 1.25-1.607v-.476a.417.417 0 01.834 0v.476c.716.186 1.25.833 1.25 1.607a.417.417 0 01-.834 0z" fill="#3E3832"/></svg>
